X:150
T:Tommy's Chance
M:6/8
L:1/8
B:Thompson's Compleat Collection of 200 Favourite Country Dances, vol. 1 (London, 1757)
Z:Transcribed and edited by Flynn Titford-Mock, 2007
Z:abc's:AK/Fiddler's Companion
K:G
gdB G3|gdB G3|gfe dcB|cBA G3|DFA d3|DFA d3|d^cB AGF|GFE D3:|
|:dfa afd|afd "tr"d3|agf edc|"tr"c3 B3|dBG ecA|fdf "tr"g3|ege faf|g3 G3:|

